X:6
T:Belsize Minuet 
C:from Edward Winder's ms2
M:3/4
L:1/8
K:G
D2|G4A2|B4de|d2c2B2|A4B2|c2ec Ac|B2dB GB|cd ec Ac|Bc dB GB|A2G2F2|G4:|
|:d2|d2g2f2|g2a2b2|a2g2f2|e4f2|g2bg eg|
f2af df|ga bg eg|fg af df|e2d2^c2|d6|d2g4|cd ec Ac|
Bc dB GB|A2D4|G4A2|BA Bc dB|G4A2|BA Bc dB|g2B2A2|G2|]
%%newpage
